!! Isochronous pitch passage.
!! Solo-line.
!! From J.S. Bach, Violin Sonata No. 1, Presto, measure 1ff
!! Violin
!! 3/8 meter
**kern	**metpos
*M3/8	*M3/8
*tb16	*tb16
=1	=1
16gg	1
16bb-	3
16gg	2
16dd	3
16gg	2
16dd	3
=2	=2
16b-	1
16dd	3
16b-	2
16g	3
16b-	2
16g	3
=3	=3
16d	1
16g	3
16d	2
16B-	3
16d	2
16B-	3
=4	=4
16G	1
16B-	3
16d	2
16g	3
16b-	2
16dd	3
=5	=5
16gg	1
16dd	3
16cc	2
16b-	3
16a	2
16g	3
=6	=6
16f#	1
16d	3
16f#	2
16a	3
16dd	2
16ff#	3
=7	=7
16aa	1
16ee-	3
16dd	2
16cc	3
16b-	2
16a	3
=8	=8
16g	1
16d	3
16g	2
16b-	3
16dd	2
16gg	3
=9	=9
16bb-	1
16gg	3
16ee-	2
16cc	3
16ee-	2
16gg	3
=10	=10
16aa	1
16ff	3
16dd	2
16b-	3
16dd	2
16ff	3
=11	=11
16gg	1
16ee-	3
16cc	2
16a	3
16cc	2
16ee-	3
=12	=12
16d	1
16gg	3
16ff#	2
16gg	3
16aa	2
16cc	3
=13	=13
16g	1
16cc	3
16b-	2
16cc	3
16dd	2
16f	3
=14	=14
16c	1
16ff	3
16ee	2
16ff	3
16gg	2
16b-	3
=15	=15
16f	1
16b-	3
16a	2
16b-	3
16cc	2
16e-	3
=16	=16
16B-	1
16ee-	3
16dd	2
16ee-	3
16ff	2
16a-	3
=17	=17
16e-	1
16B-	3
16e-	2
16g	3
16e-	2
16g	3
=18	=18
16cc	1
16g	3
16cc	2
16ee-	3
16cc	2
16ee-	3
=19	=19
16f	1
16c	3
16f	2
16a	3
16f	2
16a	3
=20	=20
16dd	1
16a	3
16dd	2
16ff	3
16dd	2
16ff	3
=21	=21
16g	1
16d	3
16g	2
16b-	3
16g	2
16b-	3
=22	=22
16ee-	1
16b-	3
16ee-	2
16gg	3
16ee-	2
16gg	3
=23	=23
16a	1
16f	3
16a	2
16cc	3
16a	2
16cc	3
=24	=24
16ff	1
16cc	3
16ff	2
16aa	3
16ff	2
16aa	3
=25	=25
16b-	1
16cc	3
16dd	2
16bb-	3
16aa	2
16bb-	3
=26	=26
16cc	1
16dd	3
16ee-	2
16bb-	3
16aa	2
16bb-	3
=27	=27
16dd	1
16ee-	3
16ff	2
16bb-	3
16aa	2
16bb-	3
=28	=28
16ee-	1
16ff	3
16gg	2
16bb-	3
16aa	2
16bb-	3
=29	=29
16a	1
16cc	3
16ee-	2
16gg	3
16ff	2
16ee-	3
=30	=30
16dd	1
16b-	3
16ee-	2
16b-	3
16ff	2
16a-	3
=31	=31
*-	*-
